brandFactory_export/1.Light/Abrir archivo_1Light.svg

<?xml version="1.0" encoding="UTF-8"?>
<svg width="24px" height="24px" viewBox="0 0 24 24" version="1.1" xmlns="http://www.w3.org/2000/svg" xmlns:xlink="http://www.w3.org/1999/xlink">
    <title>1.Light/Abrir archivo_1Light</title>
    <g id="Symbols" stroke="none" stroke-width="1" fill="none" fill-rule="evenodd">
        <g id="1.Light/Abrir-archivo_1Light" fill="#5CB615" fill-rule="nonzero">
            <path d="M20.8134454,19.3394958 C20.8134454,19.5579832 20.6352941,19.7361345 20.4168067,19.7361345 L2.32605042,19.7361345 C2.10756303,19.7361345 1.92941176,19.5579832 1.92268908,19.4268908 L3.77815126,8.83529412 C3.77815126,8.61680672 3.95294118,8.43865546 4.17478992,8.43865546 L22.2386555,8.43865546 C22.4436975,8.43865546 22.6151261,8.59663866 22.6319328,8.79831933 L20.8134454,19.3394958 L20.8134454,19.3394958 Z M0.988235294,4.46218487 C0.988235294,4.2302521 1.20336134,4.03865546 1.47226891,4.03865546 L8.97815126,4.03865546 C9.24369748,4.03865546 9.45882353,4.22689076 9.45882353,4.46218487 L9.45882353,5.72941176 C9.45882353,6.00840336 9.68067227,6.23361345 9.95294118,6.23361345 L19.4117647,6.23361345 C19.6773109,6.23361345 19.892437,6.42521008 19.8957983,6.69411765 L19.9529412,7.4302521 L4.17478992,7.4302521 C3.41176471,7.4302521 2.78991597,8.06218487 2.79663866,8.74789916 L1.67394958,15.1546218 L0.988235294,4.46218487 Z M22.2352941,7.4302521 L20.9411765,7.4302521 L20.8806723,6.65714286 C20.8806723,5.86722689 20.2184874,5.22521008 19.4084034,5.22521008 L10.4504202,5.22521008 L10.4504202,4.46218487 C10.4504202,3.67226891 9.78823529,3.0302521 8.97815126,3.0302521 L1.47226891,3.0302521 C0.658823529,3.0302521 0,3.67226891 0,4.49579832 L0.944537815,19.3092437 L0.937815126,19.3394958 C0.937815126,20.1159664 1.55966387,20.7478992 2.32605042,20.7478992 L20.4168067,20.7478992 C21.1798319,20.7478992 21.8016807,20.1159664 21.794958,19.4268908 L23.6168067,8.92268908 C23.6201681,8.89579832 23.6235294,8.86554622 23.6235294,8.83529412 C23.6235294,8.06218487 23.0016807,7.4302521 22.2352941,7.4302521 L22.2352941,7.4302521 Z" id="Abrir-archivo_1Light"></path>
        </g>
    </g>
</svg>

<svg width="24" height="24" viewBox="0 0 24 24" xmlns="http://www.w3.org/2000/svg"><path d="M20.813 19.34a.397.397 0 01-.396.396H2.327c-.22 0-.398-.178-.404-.31l1.855-10.59c0-.22.175-.397.397-.397h18.064c.205 0 .376.158.393.36l-1.819 10.54zM.988 4.461c0-.232.215-.423.484-.423h7.506c.266 0 .48.188.48.423V5.73a.5.5 0 00.495.505h9.459c.265 0 .48.191.484.46l.057.736H4.175c-.763 0-1.385.632-1.378 1.318l-1.123 6.407L.988 4.462zM22.235 7.43h-1.294l-.06-.773c0-.79-.663-1.432-1.473-1.432H10.45v-.763c0-.79-.662-1.432-1.472-1.432H1.472A1.46 1.46 0 000 4.496l.945 14.813-.007.03a1.4 1.4 0 001.388 1.409h18.09c.764 0 1.386-.632 1.379-1.321l1.822-10.504a.71.71 0 00.007-.088c0-.773-.622-1.405-1.389-1.405z" fill="#5CB615" fill-rule="nonzero"/></svg>
